images/master-pain-05.svg

<svg fill="none" height="48" viewBox="0 0 48 48" width="48" xmlns="http://www.w3.org/2000/svg"><g stroke="#ff512f" stroke-linecap="round" stroke-linejoin="round" stroke-width="4"><path d="m24 2v44"/><path d="m34 10h-15c-1.8565 0-3.637.7375-4.9497 2.0503-1.3128 1.3127-2.0503 3.0932-2.0503 4.9497s.7375 3.637 2.0503 4.9497c1.3127 1.3128 3.0932 2.0503 4.9497 2.0503h10c1.8565 0 3.637.7375 4.9497 2.0503 1.3128 1.3127 2.0503 3.0932 2.0503 4.9497s-.7375 3.637-2.0503 4.9497c-1.3127 1.3128-3.0932 2.0503-4.9497 2.0503h-17"/></g></svg>

<svg width="48" height="48" viewBox="0 0 48 48" fill="none" xmlns="http://www.w3.org/2000/svg">
<path d="M24 2V46" stroke="#FF512F" stroke-width="4" stroke-linecap="round" stroke-linejoin="round"/>
<path d="M34 10H19C17.1435 10 15.363 10.7375 14.0503 12.0503C12.7375 13.363 12 15.1435 12 17C12 18.8565 12.7375 20.637 14.0503 21.9497C15.363 23.2625 17.1435 24 19 24H29C30.8565 24 32.637 24.7375 33.9497 26.0503C35.2625 27.363 36 29.1435 36 31C36 32.8565 35.2625 34.637 33.9497 35.9497C32.637 37.2625 30.8565 38 29 38H12" stroke="#FF512F" stroke-width="4" stroke-linecap="round" stroke-linejoin="round"/>
</svg>
